icon-themes/sifr_svg/cmd/lc_insertcolumns.svg

<svg viewBox="0 0 24 24" xmlns="http://www.w3.org/2000/svg"><g fill="#555753"><path d="m16 4h-8v16h8z" opacity=".35"/><path d="m22 2h-20v20h20zm-2 2v4h-3v-4zm0 5v6h-3v-6zm0 7v4h-3v-4zm-4-12v16h-8v-16zm-1 7h-2v-2h-2v2h-2v2h2v2h2v-2h2zm-8-7v4h-3v-4zm0 5v6h-3v-6zm0 7v4h-3v-4z"/></g></svg>

<svg xmlns="http://www.w3.org/2000/svg" viewBox="0 0 24 24">
  <path
     style="opacity:0.35;fill:#555753"
     d="M 16,4 H 8 l 0,16 h 8 z"
     />
  <path
     style="fill:#555753"
     d="M 22,2 2,2 V 22 H 22 Z M 20,4 V 8 H 17 V 4 Z m 0,5 v 6 H 17 V 9 Z m 0,7 v 4 H 17 V 16 Z M 16,4 V 20 H 8 L 8,4 Z m -1,7 H 13 V 9 h -2 v 2 l -2,0 v 2 l 2,0 0,2 h 2 l 0,-2 h 2 z M 7,4 V 8 H 4 V 4 Z m 0,5 v 6 H 4 V 9 Z m 0,7 v 4 H 4 v -4 z"
     />
</svg>
